X:1
T: Paddy's Wedding
C:
R:Jig
Q:180
K:F
M:6/8
L:1/16
|:c2|A4B2 c4f2|A4B2 c4c2|d4d2 g4f2|e4d2 c4B2|
A4B2 c4f2|A4B2 c4c2|f2d2f2 g2f2g2|a4f2 f4:|
a2|g4f2 e4d2|e4f2 g4a2|g4f2 e4d2|c4B2 A4d'2|
g4f2 e4d2|e4f2 g4a2|g2a2g2 f2e2d2|c2d2c2 B2A2G2|
A4B2 c4f2|A4B2 c4c2|d4d2 g4f2|e4d2 c4B2|
A4B2 c4f2|A4B2 c4c2|f2d2f2 g2f2g2|a4f2 f4||
